src/assets/images/pause.svg

<?xml version="1.0" encoding="UTF-8"?>
<svg width="512px" height="512px" viewBox="0 0 512 512" version="1.1" xmlns="http://www.w3.org/2000/svg" xmlns:xlink="http://www.w3.org/1999/xlink">
    <!-- Generator: Sketch 63.1 (92452) - https://sketch.com -->
    <title>pause</title>
    <desc>Created with Sketch.</desc>
    <g id="Website" stroke="none" stroke-width="1" fill="none" fill-rule="evenodd">
        <g id="Home" transform="translate(-13.000000, -1439.000000)">
            <g id="pause" transform="translate(13.000000, 1439.000000)">
                <circle id="Oval" fill="#F2F3F4" cx="256" cy="256" r="209"></circle>
                <polygon id="Path" fill="#F14042" fill-rule="nonzero" points="301 181 331 181 331 331 301 331"></polygon>
                <path d="M256,0 C115.390625,0 0,115.390625 0,256 C0,396.609375 115.390625,512 256,512 C396.609375,512 512,396.609375 512,256 C512,115.390625 396.609375,0 256,0 Z M241,361 L151,361 L151,151 L241,151 L241,361 Z M361,361 L271,361 L271,151 L361,151 L361,361 Z" id="Shape" fill="#F14042" fill-rule="nonzero"></path>
                <polygon id="Path" fill="#F14042" fill-rule="nonzero" points="181 181 211 181 211 331 181 331"></polygon>
            </g>
        </g>
    </g>
</svg>

<?xml version="1.0"?>
<svg xmlns="http://www.w3.org/2000/svg" viewBox="0 0 512 512" width="512px" height="512px"><path d="m301 181h30v150h-30zm0 0" fill="#F14042"/><path d="m256 0c-140.609375 0-256 115.390625-256 256s115.390625 256 256 256 256-115.390625 256-256-115.390625-256-256-256zm-15 361h-90v-210h90zm120 0h-90v-210h90zm0 0" fill="#F14042"/><path d="m181 181h30v150h-30zm0 0" fill="#F14042"/></svg>
